!!!COM: Schubert, Franz
!!!CNT: Deutscher
!!!TXO: Deutsch
!!!OTL: "Der Atlas"
!!!OPR: Schwanengesang
!!!LYR: Heine, Heinrich
!!!ONM: No. 8
!!!ODT: 1828/
!!NB: Vocal melody only encoded.
**kern	**silbe
*clefG2	*
*k[b-e-]	*
*g:	*
*M3/4	*
*MM[geschwind]	*
=4	=4
4r	.
4r	.
8.r	.
{16d	{Ich
=5	=5
4..g	un-
16g	-glu2ck-
8.g	-sel'-
16b-	-ger
=6	=6
4f#	At-
4f#}	-las,}
8.r	.
{16d	{ich
=7	=7
4..g	un-
16dd	-glu2ck-
8.b	-sel'-
16g	-ger
=8	=8
4f#	At-
4f#}	-las!}
{8.d	{ei-
16d	-ne
=9	=9
2b-	Welt,
4g	die
=10	=10
4..ee-	gan-
16dd}	-ze}
{8.cc	{Welt
16b-	der
=11	=11
4a-	Schmer-
4a-	-zen
8.dd	muss
16dd	ich
=12	=12
4b-	tra-
8.g}	-gen,}
{16g	{die
8.ee-	gan-
16ee-	-ze
=13	=13
2a-	Welt
8.dd	muss
16dd	ich
=14	=14
4b-	tra-
4g}	-gen,}
4r	.
=15	=15
4r	.
4r	.
8r	.
{8g	{ich
=16	=16
4.g	tra-
8g	-ge
8g	Un-
8g	-er-
=17	=17
8.g#	-tra2g-
16g#	-lich-
4g#}	-es,}
8r	.
{8g#	{und
=18	=18
8.g#	bre-
16a#	-chen
8bn	will
16cc#	mir
16cc#	das
8dd	Herz
8ee#	im
=19	=19
2.ff#	Lei-
=20	=20
4bn}	-be.}
4r	.
4r	.
=23	=23
4r	.
8.r	.
{16f#	{Du
8.d#	stol-
16f#	-zes
=24	=24
2bn	Herz,
8r	.
8bn	du
=25	=25
4..cc#	hast
16cc#	es
8.a#	ja
16f#	ge-
=26	=26
4bn}	-wollt!}
4r	.
4r	.
=27	=27
4r	.
8.r	.
{16f#	{Du
8.d#	woll-
16f#	-test
=28	=28
8.cc#	glu2ck-
16bn	-lich
4bn	sein,
8r	.
8dd#	un-
=29	=29
2een	-end-
8cc#	-lich
8a#	|
=30	=30
4cc#	glu2ck-
8bn}	-lich,}
8r	.
{12bn	{o-
12bn	-der
12bn	un-
=31	=31
2ccn	-end-
4bn	-lich
=32	=32
8bn	e-
8a	|
4g}	-lend,}
8r	.
{8bn	{un-
=33	=33
2cc	-end-
4bn	-lich
=34	=34
8bn	e-
8a	|
4g}	-lend,}
4r	.
=35	=35
4r	.
4r	.
{8.bn	{stol-
16cc#	-zes
=36	=36
2dd	Herz,
4dd	und
=37	=37
4.gg	je-
8ee-	-tzo
8cc	bist
8a	du
=38	=38
2.dd	e-
=39	=39
4g}	-lend.}
4r	.
8.r	.
{16dd	{Ich
=40	=40
4..dd	un-
16cc	-glu2ck-
8.b-	-sel'-
16a	-ger
=41	=41
4b-	At-
4g}	-las,}
8.r	.
{16ee-	{in
=42	=42
4..dd	un-
16cc	-glu2ck-
8.b-	-sel'-
16a	-ger
=43	=43
4b-	At-
4g}	-las!}
8.r	.
{16g	{die
=44	=44
4..ee-	gan-
16dd	-ze
8.cc	Welt
16b-	der
=45	=45
4a	Schmer-
4a	-zen
8.dd	muss
16dd	ich
=46	=46
4b-	tra-
8.g}	-gen,}
{16g	{die
8.ee-	gan-
16ee-	-ze
=47	=47
2a	Welt
8.dd	muss
16dd	ich
=48	=48
4b-	tra-
4g}	-gen,}
8r	.
{8g	{die
=49	=49
4.g	gan
8b-	-ze
8dd	Welt
8gg	der
=50	=50
4.aa-	Schmer-
8aa-	-zen
8gg	muss
8ff#	ich
=51	=51
2.gg	tra-
=52	=52
4g}	-gen.}
4r	.
4r	.
*-	*-
